X: 27
T:Difyrrwch Gwyr Llanfabon
T:The Pleasures of the Men of Llanfabon
M:4/4
L:1/8
Q:220
C:Trad
S:Blodau'r Grug Collection Vol. 2
A:Wales
Z:brian_martin12345@yahoo.com
K:G
GA|B2B2B2d2|G2G2G3A|B2B2c2e2|d6c2|B2B2B2d2|A2A2A3B|c2c2BAGF|G6:||!
ef|g2g2d2ef|g2g2d2ef|g2g2agfe|d6^cd|e2e2A2^cd|e2e2A2fg|a2g2f2e2|d6dc|!
B2B2B2d2|G2G2G3A|B2B2c2e2|d6ef|g2g2f3f|e2e2d3d|c2e2dcBA|G6||

